X:1
T:Pick Me Up on Your Way Down
M:4/4
L:1/4
K:G
 d d| e d d B| G2 A B| d c c G| E2 A B| c B c A| F2 d d| e d d c| B2 d d|\
 e d d B| G2 A B| d c c G| E2 A B| c B c A| F2 d d| d c E F| G4-| G2||\
